images/footer-google.svg

<?xml version="1.0"?>
<svg xmlns="http://www.w3.org/2000/svg" xmlns:xlink="http://www.w3.org/1999/xlink" xmlns:svgjs="http://svgjs.com/svgjs" version="1.1" width="512" height="512" x="0" y="0" viewBox="0 0 512 512" style="enable-background:new 0 0 512 512" xml:space="preserve"><g><g xmlns="http://www.w3.org/2000/svg"><path d="m147.682 173.862c24.86-32.704 64.162-53.862 108.318-53.862 36.326 0 70.479 14.146 96.167 39.833l10.606 10.606 84.853-84.852-10.606-10.606c-48.352-48.352-112.639-74.981-181.02-74.981-68.38 0-132.667 26.629-181.02 74.98-4.389 4.39-8.594 8.914-12.622 13.557z" fill="#2b388f" data-original="#000000" style=""/><path d="m423.462 449.642c4.643-4.028 9.168-8.233 13.558-12.622 48.351-48.353 74.98-112.64 74.98-181.02 0-15.575-1.41-31.179-4.192-46.377l-2.251-12.299h-264.557v120h136.452c-9.437 18.773-22.936 34.779-39.199 47.109z" fill="#2b388f" data-original="#000000" style=""/><path d="m311.602 380.208c-17.091 7.623-35.947 11.792-55.602 11.792-44.156 0-83.458-21.158-108.318-53.862l-85.324 85.324c4.028 4.643 8.233 9.168 12.622 13.557 48.353 48.352 112.64 74.981 181.02 74.981 51.916 0 101.464-15.363 143.479-43.915z" fill="#2b388f" data-original="#000000" style=""/><path d="m131.863 311.531c-7.619-16.965-11.863-35.761-11.863-55.531s4.244-38.566 11.863-55.531l-87.948-87.948c-28.552 42.015-43.915 91.563-43.915 143.479s15.363 101.464 43.915 143.479z" fill="#2b388f" data-original="#000000" style=""/></g></g></svg>

<svg xmlns="http://www.w3.org/2000/svg" width="512" height="512"><g xmlns="http://www.w3.org/2000/svg" fill="#2b388f"><path d="M147.682 173.862C172.542 141.158 211.844 120 256 120c36.326 0 70.479 14.146 96.167 39.833l10.606 10.606 84.853-84.852-10.606-10.606C388.668 26.629 324.381 0 256 0 187.62 0 123.333 26.629 74.98 74.98a262.026 262.026 0 00-12.622 13.557zM423.462 449.642a262.046 262.046 0 0013.558-12.622C485.371 388.667 512 324.38 512 256a258.24 258.24 0 00-4.192-46.377l-2.251-12.299H241v120h136.452a135.388 135.388 0 01-39.199 47.109zM311.602 380.208C294.511 387.831 275.655 392 256 392c-44.156 0-83.458-21.158-108.318-53.862l-85.324 85.324a261.618 261.618 0 0012.622 13.557C123.333 485.371 187.62 512 256 512c51.916 0 101.464-15.363 143.479-43.915zM131.863 311.531C124.244 294.566 120 275.77 120 256s4.244-38.566 11.863-55.531l-87.948-87.948C15.363 154.536 0 204.084 0 256s15.363 101.464 43.915 143.479z" data-original="#000000"/></g></svg>
